assets/images/icons/src/stack-exchange.svg

<?xml version="1.0" encoding="utf-8"?>
<!-- Generated by IcoMoon.io -->
<!DOCTYPE svg PUBLIC "-//W3C//DTD SVG 1.1//EN" "http://www.w3.org/Graphics/SVG/1.1/DTD/svg11.dtd">
<svg version="1.1" xmlns="http://www.w3.org/2000/svg" xmlns:xlink="http://www.w3.org/1999/xlink" width="10" height="14" viewBox="0 0 10 14">
<path fill="#444444" d="M9.836 9.789v0.516q0 0.664-0.449 1.129t-1.082 0.465h-0.445l-2.031 2.102v-2.102h-4.133q-0.633 0-1.082-0.465t-0.449-1.129v-0.516h9.672zM9.836 7.242v1.992h-9.672v-1.992h9.672zM9.836 4.68v1.992h-9.672v-1.992h9.672zM9.836 3.586v0.523h-9.672v-0.523q0-0.656 0.449-1.121t1.082-0.465h6.609q0.633 0 1.082 0.465t0.449 1.121z"></path>
</svg>

<svg xmlns="http://www.w3.org/2000/svg" width="10" height="14" viewBox="0 0 10 14"><path fill="#444" d="M9.836 9.789v.516q0 .664-.449 1.129t-1.082.465H7.86l-2.031 2.102v-2.102H1.696q-.633 0-1.082-.465t-.449-1.129v-.516h9.672zm0-2.547v1.992H.164V7.242h9.672zm0-2.562v1.992H.164V4.68h9.672zm0-1.094v.523H.164v-.523q0-.656.449-1.121T1.695 2h6.609q.633 0 1.082.465t.449 1.121z"/></svg>
